X:010
T:Dudley Street
C:Dan R MacDonald
B:The Trip to Windsor Collection
M:6/8
L:1/8
K:E
F|EFE EGB|eba gfe|fdB Bdf|agf AGF|EFE EGB|eba gfe|
fdB agf|e3 e2::g|bge Beg|Bba gfe|fdB Bdf|agf AGF|1bge Beg|
Bba gfe|fdB agf|e3 e2:|2EGB Ace|Bdf egb|eac' bd'f'|e'3 e'2|]
<end>
<start>
